X:105
T:O'Sullivan's Fancy
R:polka
H:See also #146. Also in G, #134
Z:id:hn-polka-105
M:2/4
L:1/8
K:D
AD FG | A>G AB | =cA GA/G/ | EF GF/G/ |
AD FG | A>G AB | =cA GE | ED D2 :|
|: Ad de | f2 ed | ^cA AB | ^cd ec |
Ad de | f2 ed | ^cA GE | ED D2 :|

